<?xml version="1.0" encoding="iso-8859-1"?>
<map xmlns:xsd="http://www.w3.org/2001/XMLSchema" xmlns:xsi="http://www.w3.org/2001/XMLSchema-instance" version="1.11" tiledversion="1.11.2" orientation="orthogonal" renderorder="right-down" width="64" height="19" tilewidth="16" tileheight="16" hexsidelength="0" infinite="0" nextlayerid="8" nextobjectid="1">
  <properties />
  <tileset firstgid="1" source="../Actors.tsx" />
  <tileset firstgid="257" source="../Blocks.tsx" />
  <tileset firstgid="513" source="pizza.tileset.tsx" />
  <layer id="7" name="Tile Layer 5" width="64" height="19">
    <data encoding="csv">
744,743,744,743,744,743,744,743,744,743,744,743,744,743,744,743,744,743,744,743,744,743,744,743,744,743,744,743,744,743,744,743,744,743,744,743,744,743,744,743,744,743,744,743,744,743,744,743,744,743,744,743,744,743,744,743,744,743,744,743,744,743,744,743,
743,744,743,744,743,744,743,744,743,744,743,744,743,744,743,744,743,744,743,744,743,744,743,744,743,744,743,744,743,744,743,744,743,744,743,744,743,744,743,744,743,744,743,744,743,744,743,744,743,744,743,744,743,744,743,744,743,744,743,744,743,744,743,744,
744,743,744,743,744,743,744,743,744,743,744,743,744,743,744,743,744,743,744,743,744,743,744,743,744,743,744,743,744,743,744,743,744,743,744,743,744,743,744,743,744,743,744,743,744,743,744,743,744,743,744,743,744,743,744,743,744,743,744,743,744,743,744,743,
743,744,743,744,743,744,743,744,743,744,743,744,743,744,743,744,743,744,743,744,743,744,743,744,743,744,743,744,743,744,743,744,743,744,743,744,743,744,743,744,743,744,743,744,743,744,743,744,743,744,743,744,743,744,743,744,743,744,743,744,743,744,743,744,
744,743,744,743,744,743,744,743,744,743,744,743,744,743,744,743,744,743,744,743,744,743,744,743,744,743,744,743,744,743,744,743,744,743,744,743,744,743,744,743,744,743,744,743,744,743,744,743,744,743,744,743,744,743,744,743,744,743,744,743,744,743,744,743,
743,744,743,744,743,744,743,744,743,744,743,744,743,744,743,744,743,744,743,744,743,744,743,744,743,744,743,744,743,744,743,744,743,744,743,744,743,744,743,744,743,744,743,744,743,744,743,744,743,744,743,744,743,744,743,744,743,744,743,744,743,744,743,744,
744,743,744,743,744,0,744,743,744,743,744,743,744,743,744,743,744,743,744,743,744,743,744,743,744,743,744,743,744,743,744,743,744,743,744,743,744,743,744,743,744,743,744,743,744,743,744,743,744,743,744,743,744,743,744,743,744,743,744,743,744,743,744,743,
743,744,743,744,743,744,743,744,743,744,743,744,743,744,743,744,743,744,743,744,743,744,743,744,743,744,743,744,743,744,743,744,743,744,743,744,743,744,743,744,743,744,743,744,743,744,743,744,743,744,743,744,743,744,743,744,743,744,743,744,743,744,743,744,
744,743,744,743,744,743,744,0,0,0,0,0,0,743,744,743,744,743,744,743,744,743,744,743,744,743,744,743,744,743,744,743,743,744,743,743,744,743,744,743,744,743,744,743,744,743,744,743,744,743,744,743,744,743,744,743,744,743,744,743,744,743,744,743,
743,744,743,744,743,744,743,744,743,744,743,744,743,744,743,744,743,744,743,744,743,744,743,744,743,744,743,744,743,744,743,744,743,743,744,744,743,744,743,744,743,744,743,744,743,744,743,744,743,744,743,744,743,744,743,744,743,744,743,744,743,744,743,744,
744,743,744,743,744,743,744,743,744,743,744,743,744,743,744,743,744,743,744,743,744,743,744,743,744,743,744,743,744,743,744,743,744,743,744,743,744,743,744,743,744,743,744,743,744,743,744,743,744,743,744,743,744,743,744,743,744,743,744,743,744,743,744,743,
743,744,743,744,743,744,743,744,743,744,743,744,743,744,743,744,743,744,743,744,743,744,743,744,743,744,743,744,743,744,743,744,743,744,743,744,743,744,743,744,743,744,743,744,743,744,743,744,743,744,743,744,743,744,743,744,743,744,743,744,743,744,743,744,
744,743,744,743,744,743,744,743,744,743,744,743,744,743,744,743,744,743,744,743,744,743,744,743,744,743,744,743,744,743,744,743,744,743,744,743,744,743,744,743,744,743,744,743,744,743,744,743,744,743,744,743,744,743,744,743,744,743,744,743,744,743,744,743,
743,744,743,744,743,744,743,744,743,744,743,744,743,744,743,744,743,744,743,744,743,744,743,744,743,744,743,744,743,744,743,744,743,744,743,744,743,744,743,744,743,744,743,744,743,744,743,744,743,744,743,744,743,744,743,744,743,744,743,744,743,744,743,744,
744,743,744,743,744,743,744,743,744,743,744,743,744,743,744,743,744,743,744,743,744,743,744,743,744,743,744,743,744,743,744,743,744,743,744,743,744,743,744,743,744,743,744,743,744,743,744,743,744,743,744,743,744,743,744,743,744,743,744,743,744,743,744,743,
743,744,743,744,743,744,743,744,743,744,743,744,743,744,743,744,743,744,743,744,743,744,743,744,743,744,743,744,743,744,743,744,743,744,743,744,743,744,743,744,743,744,743,744,743,744,743,744,743,744,743,744,743,744,743,744,743,744,743,744,743,744,743,744,
744,743,744,743,744,743,744,743,744,743,744,743,744,743,744,743,744,743,744,743,744,743,744,743,744,743,744,743,744,743,744,743,744,743,744,743,744,743,744,743,744,743,744,743,744,743,744,743,744,743,744,743,744,743,744,743,744,743,744,743,744,743,744,743,
743,744,743,744,743,744,743,744,743,744,743,744,743,744,743,744,743,744,743,744,743,744,743,744,743,744,743,744,743,744,743,744,743,744,743,744,743,744,743,744,743,744,743,744,743,744,743,744,743,744,743,744,743,744,743,744,743,744,743,744,743,744,743,744,
744,743,744,743,744,743,744,743,744,743,744,743,744,743,744,743,744,743,744,743,744,743,744,743,744,743,744,743,744,743,744,743,744,743,744,743,744,743,744,743,744,743,744,743,744,743,744,743,744,743,744,743,744,743,744,743,744,743,744,743,744,743,744,743
</data>
    <properties>
      <property name="amiga_ocs" type="bool" value="true" />
      <property name="foreground" type="bool" value="False" />
    </properties>
  </layer>
  <layer id="1" name="map" width="64" height="19">
    <data encoding="csv">
513,513,513,513,513,513,513,513,513,513,513,513,513,513,513,513,513,513,513,513,513,513,513,513,513,513,513,513,513,513,513,513,513,513,513,513,513,513,513,513,513,513,513,513,513,513,513,513,513,513,513,513,513,513,513,513,513,513,513,513,513,513,513,513,
513,513,513,513,513,513,513,513,513,513,513,513,513,513,513,513,513,513,513,513,513,513,513,513,513,513,513,513,513,513,513,513,513,513,513,513,513,513,513,513,513,513,513,513,513,513,513,513,513,513,513,513,513,513,513,513,513,513,513,513,513,513,513,513,
513,586,587,588,589,590,591,592,593,594,595,596,597,598,599,600,601,513,513,513,513,513,513,513,513,513,513,513,513,586,587,588,589,590,591,592,593,594,595,596,597,598,599,600,601,513,513,513,513,513,513,513,513,513,513,513,513,513,513,513,513,513,513,513,
513,604,605,606,607,608,609,610,611,612,613,614,615,616,617,618,619,513,513,513,513,513,513,513,513,513,513,513,513,604,605,606,607,608,609,610,611,612,613,614,615,616,617,618,619,513,513,513,513,513,513,513,513,513,513,513,513,513,513,513,513,513,513,513,
513,622,623,624,625,626,627,628,629,630,631,632,633,634,635,636,637,513,513,513,513,513,513,513,513,513,513,513,513,622,623,624,625,626,627,628,629,630,631,632,633,634,635,636,637,513,513,513,513,513,513,513,513,513,513,513,513,513,513,513,513,513,513,513,
513,640,641,642,643,644,645,646,647,648,649,650,651,652,653,654,655,513,513,513,513,513,513,513,513,513,513,513,513,640,641,642,643,644,645,646,647,648,649,650,651,652,653,654,655,513,513,513,513,513,513,513,513,513,513,513,513,513,513,513,513,513,513,513,
513,658,659,660,661,662,663,664,665,666,667,668,669,670,671,672,673,513,513,513,513,513,513,513,513,513,513,513,513,658,659,660,661,662,663,664,665,666,667,668,669,670,671,672,673,513,513,513,513,513,513,513,513,513,513,513,513,513,513,513,513,513,513,513,
513,676,677,678,679,680,681,682,683,684,685,686,687,688,689,690,691,513,513,513,513,513,513,513,513,513,513,513,513,676,677,678,679,680,681,682,683,684,685,686,687,688,689,690,691,513,513,513,513,513,513,513,513,513,513,513,513,513,513,513,513,513,513,513,
513,694,695,696,697,698,699,700,701,702,703,704,705,706,707,708,587,588,589,590,591,592,593,594,595,596,597,598,599,694,695,696,697,698,699,700,701,702,703,704,705,706,707,708,586,587,588,589,590,591,592,593,594,595,596,597,598,599,600,601,513,513,513,513,
513,712,713,714,715,716,717,718,719,720,721,722,723,724,725,604,605,606,607,608,609,610,611,612,613,614,615,616,617,712,713,714,715,716,717,718,719,720,721,722,723,724,725,726,604,605,606,607,608,609,610,611,612,613,614,615,616,617,618,619,513,513,513,513,
513,513,513,513,513,513,513,513,513,513,513,513,513,513,513,622,623,624,625,626,627,628,629,630,631,632,633,634,635,636,637,513,513,513,513,513,513,513,513,513,513,513,513,513,622,623,624,625,626,627,628,629,630,631,632,633,634,635,636,637,513,513,513,513,
513,513,513,513,513,513,513,513,513,513,513,513,513,513,513,640,641,642,643,644,645,646,647,648,649,650,651,652,653,654,655,513,513,513,513,513,513,513,513,513,513,513,513,513,640,641,642,643,644,645,646,647,648,649,650,651,652,653,654,655,513,513,513,513,
513,513,513,513,513,513,513,513,513,513,513,513,513,513,513,658,659,660,661,662,663,664,665,666,667,668,669,670,671,672,673,513,513,513,513,513,513,513,513,513,513,513,513,513,658,659,660,661,662,663,664,665,666,667,668,669,670,671,672,673,513,513,513,513,
513,513,513,513,513,513,513,513,513,513,513,513,513,513,513,676,677,678,679,680,681,682,683,684,685,686,687,688,689,690,691,513,513,513,513,513,513,513,513,513,513,513,513,513,676,677,678,679,680,681,682,683,684,685,686,687,688,689,690,691,513,513,513,513,
513,513,513,513,513,513,513,513,513,513,513,513,513,513,513,694,695,696,697,698,699,700,701,702,703,704,705,706,707,708,709,513,513,513,513,513,513,513,513,513,513,513,513,513,694,695,696,697,698,699,700,701,702,703,704,705,706,707,708,709,513,513,513,513,
513,513,513,513,513,513,513,513,513,513,513,513,513,513,513,712,713,714,715,716,717,718,719,720,721,722,723,724,725,726,727,513,513,513,513,513,513,513,513,513,513,513,513,513,712,713,714,715,716,717,718,719,720,721,722,723,724,725,726,727,513,513,513,513,
513,513,513,513,513,513,513,513,513,513,513,513,513,513,513,513,513,513,513,513,513,513,513,513,513,513,513,513,513,513,513,513,513,513,513,513,513,513,513,513,513,513,513,513,513,513,513,513,513,513,513,513,513,513,513,513,513,513,513,513,513,513,513,513,
513,513,513,513,513,513,513,513,513,513,513,513,513,513,513,513,513,513,513,513,513,513,513,513,513,513,513,513,513,513,513,513,513,513,513,513,513,513,513,513,513,513,513,513,513,513,513,513,513,513,513,513,513,513,513,513,513,513,513,513,513,513,513,513,
513,513,513,513,513,513,513,513,513,513,513,513,513,513,513,513,513,513,513,513,513,513,513,513,513,513,513,513,513,513,513,513,513,513,513,513,513,513,513,513,513,513,513,513,513,513,513,513,513,513,513,513,513,513,513,513,513,513,513,513,513,513,513,513
</data>
    <properties>
      <property name="amiga_ocs" type="bool" value="true" />
      <property name="foreground" type="bool" value="false" />
    </properties>
  </layer>
  <layer id="2" name="blocks" width="64" height="19">
    <data encoding="csv">
0,0,0,0,0,0,0,0,0,0,0,0,0,0,0,0,0,0,0,0,0,0,0,0,0,0,0,0,0,0,0,0,0,0,0,0,0,0,0,0,0,0,0,0,0,0,0,0,0,0,0,0,0,0,0,0,0,0,0,0,0,0,0,0,
0,0,0,0,0,0,0,0,0,0,0,0,0,0,0,0,0,0,0,0,0,0,0,0,0,0,0,0,0,0,0,0,0,0,0,0,0,0,0,0,0,0,0,0,0,0,0,0,0,0,0,0,0,0,0,0,0,0,0,0,0,0,0,0,
0,0,0,0,0,0,0,0,0,0,0,0,0,0,0,0,0,0,0,0,0,0,0,0,0,0,0,0,0,0,0,0,0,0,0,0,0,0,0,0,0,0,0,0,0,0,0,0,0,0,0,0,0,0,0,0,0,0,0,0,0,0,0,0,
0,0,0,0,0,0,0,0,0,0,0,0,0,0,0,0,0,0,0,0,0,0,0,0,0,0,0,0,0,0,0,0,0,0,0,0,0,0,0,0,0,0,0,0,0,0,0,0,0,0,0,0,0,0,0,0,0,0,0,0,0,0,0,0,
0,0,0,0,0,0,0,0,0,0,0,0,0,0,0,0,0,0,0,0,0,0,0,0,0,0,0,0,0,0,0,0,0,0,0,0,0,0,0,0,0,0,0,0,0,0,0,0,0,0,0,0,0,0,0,0,0,0,0,0,0,0,0,0,
0,0,0,0,0,0,0,0,0,0,0,0,0,0,0,0,0,0,0,0,0,0,0,0,0,0,0,0,0,0,0,0,0,0,0,0,0,0,0,0,0,0,0,0,0,0,0,0,0,0,0,0,0,0,0,0,0,0,0,0,0,0,0,0,
0,0,0,0,0,0,0,0,0,0,0,0,0,0,0,0,0,0,0,0,0,0,0,0,0,0,0,0,0,0,0,0,0,0,0,0,0,0,0,0,0,0,0,0,0,0,0,0,0,0,0,0,0,0,0,0,0,0,0,0,0,0,0,0,
0,0,0,0,0,0,0,0,0,0,0,0,0,0,0,0,0,0,0,0,0,0,0,0,0,0,0,0,0,0,0,0,0,0,0,0,0,0,0,0,0,0,0,0,0,0,0,0,0,0,0,0,0,0,0,0,0,0,0,0,0,0,0,0,
0,0,0,0,0,0,0,0,0,0,0,0,0,0,0,0,0,0,0,0,0,0,0,0,0,0,0,0,0,0,0,0,0,0,0,0,0,0,0,0,0,0,0,0,0,0,0,0,0,0,0,0,0,0,0,0,0,0,0,0,0,0,0,0,
0,0,0,0,0,0,0,0,0,0,0,0,0,0,0,0,0,0,0,0,0,0,0,0,0,0,0,0,0,0,0,0,0,0,0,0,0,0,0,0,0,0,0,0,0,0,0,0,0,0,0,0,0,0,0,0,0,0,0,0,0,0,0,0,
0,0,0,0,0,0,0,0,0,0,0,0,0,0,0,0,0,0,0,0,0,0,0,0,0,0,0,0,0,0,0,0,0,0,0,0,0,0,0,0,0,0,0,0,0,0,0,0,0,0,0,0,0,0,0,0,0,0,0,0,0,0,0,0,
0,0,0,0,0,0,0,0,0,0,0,0,0,0,0,0,0,0,0,0,0,0,0,0,0,0,0,0,0,0,0,0,0,0,0,0,0,0,0,0,0,0,0,0,0,0,0,0,0,0,0,0,0,0,0,0,0,0,0,0,0,0,0,0,
0,0,0,0,0,0,0,0,0,0,0,0,0,0,0,0,0,0,0,0,0,0,0,0,0,0,0,0,0,0,0,0,0,0,0,0,0,0,0,0,0,0,0,0,0,0,0,0,0,0,0,0,0,0,0,0,0,0,0,0,0,0,0,0,
0,0,0,0,0,0,0,0,0,0,0,0,0,0,0,0,0,0,0,0,0,0,0,0,0,0,0,0,0,0,0,0,0,0,0,0,0,0,0,0,0,0,0,0,0,0,0,0,0,0,0,0,0,0,0,0,0,0,0,0,0,0,0,0,
0,0,0,0,0,0,0,0,0,0,0,0,0,0,0,0,0,0,0,0,0,0,0,0,0,0,0,0,0,0,0,0,0,0,0,0,0,0,0,0,0,0,0,0,0,0,0,0,0,0,0,0,0,0,0,0,0,0,0,0,0,0,0,0,
0,0,0,0,0,0,0,0,0,0,0,0,0,0,0,0,0,0,0,0,0,0,0,0,0,0,0,0,0,0,0,0,0,0,0,0,0,0,0,0,0,0,0,0,0,0,0,0,0,0,0,0,0,0,0,0,0,0,0,0,0,0,0,0,
0,0,0,0,0,0,0,0,0,0,0,0,0,0,0,0,0,0,0,0,0,0,0,0,0,0,0,0,0,0,0,0,0,0,0,0,0,0,0,0,0,0,0,0,0,0,0,0,0,0,0,0,0,0,0,0,0,0,0,0,0,0,0,0,
0,0,0,0,0,0,0,0,0,0,0,0,0,0,0,0,0,0,0,0,0,0,0,0,0,0,0,0,0,0,0,0,0,0,0,0,0,0,0,0,0,0,0,0,0,0,0,0,0,0,0,0,0,0,0,0,0,0,0,0,0,0,0,0,
0,0,0,0,0,0,0,0,0,0,0,0,0,0,0,0,0,0,0,0,0,0,0,0,0,0,0,0,0,0,0,0,0,0,0,0,0,0,0,0,0,0,0,0,0,0,0,0,0,0,0,0,0,0,0,0,0,0,0,0,0,0,0,0
</data>
    <properties>
      <property name="amiga_ocs" type="bool" value="true" />
      <property name="foreground" type="bool" value="false" />
    </properties>
  </layer>
  <layer id="3" name="actors" width="64" height="19">
    <data encoding="csv">
0,0,0,0,0,0,0,0,0,0,0,0,0,0,0,0,0,0,0,0,0,0,0,0,0,0,0,0,0,0,0,0,0,0,0,0,0,0,0,0,0,0,0,0,0,0,0,0,0,0,0,0,0,0,0,0,0,0,0,0,0,0,0,0,
0,0,0,0,0,0,0,0,0,0,0,0,0,0,0,0,0,0,0,0,0,0,0,0,0,0,0,0,0,0,0,0,0,0,0,0,0,0,0,0,0,0,0,0,0,0,0,0,0,0,0,0,0,0,0,0,0,0,0,0,0,0,0,0,
0,0,0,0,0,0,0,0,0,0,0,0,0,0,0,0,0,0,0,0,0,0,0,0,0,0,0,0,0,0,0,0,0,0,0,0,0,0,0,0,0,0,0,0,0,0,0,0,0,0,0,0,0,0,0,0,0,0,0,0,0,0,0,0,
0,0,0,0,0,0,0,0,0,0,0,0,0,0,0,0,0,0,0,0,0,0,0,0,0,0,0,0,0,0,0,0,0,0,0,0,0,0,0,0,0,0,0,0,0,0,0,0,0,0,0,0,0,0,0,0,0,0,0,0,0,0,0,0,
0,0,0,0,0,0,0,0,0,0,0,0,0,0,0,0,0,0,0,0,0,0,0,0,0,0,0,0,0,0,0,0,0,0,0,0,0,0,0,0,0,0,0,0,0,0,0,0,0,0,0,0,0,0,0,0,0,0,0,0,0,0,0,0,
0,0,0,0,0,0,0,0,1,0,0,0,0,0,0,0,0,0,0,0,0,0,0,0,0,0,0,0,0,0,0,0,0,0,0,0,0,0,0,0,0,0,0,0,0,0,0,0,0,0,0,0,0,0,0,0,0,0,0,0,0,0,0,0,
0,0,0,0,0,0,0,0,0,0,0,0,0,0,0,0,0,0,0,0,0,0,0,0,0,0,0,0,0,0,0,0,0,0,0,0,0,0,0,0,0,0,0,0,0,0,0,0,0,0,0,0,0,0,0,0,0,0,0,0,0,0,0,0,
0,0,0,0,0,0,0,0,0,0,0,0,0,0,0,0,0,0,0,0,0,0,0,0,0,0,0,0,0,0,0,0,0,0,0,0,0,0,0,0,0,0,0,0,0,0,0,0,0,0,0,0,0,0,0,0,0,0,0,0,0,0,0,0,
0,0,0,0,0,0,0,0,0,0,0,0,0,0,0,0,0,0,0,0,0,0,0,0,0,0,0,0,0,0,0,0,0,0,0,0,0,0,0,0,0,0,0,0,0,0,0,0,0,0,0,0,0,0,0,0,0,0,0,0,0,0,0,0,
0,0,0,0,0,0,0,0,0,0,0,0,0,0,0,0,0,0,0,0,0,0,0,0,0,0,0,0,0,0,0,0,0,0,0,0,0,0,0,0,0,0,0,0,0,0,0,0,0,0,0,0,0,0,0,0,0,0,0,0,0,0,0,0,
0,0,0,0,0,0,0,0,0,0,0,0,0,0,0,0,0,0,0,0,0,0,0,0,0,0,0,0,0,0,0,0,0,0,0,0,0,0,0,0,0,0,0,0,0,0,0,0,0,0,0,0,0,0,0,0,0,0,0,0,0,0,0,0,
0,0,0,0,0,0,0,0,0,0,0,0,0,0,0,0,0,0,0,0,0,0,0,0,0,0,0,0,0,0,0,0,0,0,0,0,0,0,0,0,0,0,0,0,0,0,0,0,0,0,0,0,0,0,0,0,0,0,0,0,0,0,0,0,
0,0,0,0,0,0,0,0,0,0,0,0,0,0,0,0,0,0,0,0,0,0,0,0,0,0,0,0,0,0,0,0,0,0,0,0,0,0,0,0,0,0,0,0,0,0,0,0,0,0,0,0,0,0,0,0,0,0,0,0,0,0,0,0,
0,0,0,0,0,0,0,0,0,0,0,0,0,0,0,0,0,0,0,0,0,0,0,0,0,0,0,0,0,0,0,0,0,0,0,0,0,0,0,0,0,0,0,0,0,0,0,0,0,0,0,0,0,0,0,0,0,0,0,0,0,0,0,0,
0,0,0,0,0,0,0,0,0,0,0,0,0,0,0,0,0,0,0,0,0,0,0,0,0,0,0,0,0,0,0,0,0,0,0,0,0,0,0,0,0,0,0,0,0,0,0,0,0,0,0,0,0,0,0,0,0,0,0,0,0,0,0,0,
0,0,0,0,0,0,0,0,0,0,0,0,0,0,0,0,0,0,0,0,0,0,0,0,0,0,0,0,0,0,0,0,0,0,0,0,0,0,0,0,0,0,0,0,0,0,0,0,0,0,0,0,0,0,0,0,0,0,0,0,0,0,0,0,
0,0,0,0,0,0,0,0,0,0,0,0,0,0,0,0,0,0,0,0,0,0,0,0,0,0,0,0,0,0,0,0,0,0,0,0,0,0,0,0,0,0,0,0,0,0,0,0,0,0,0,0,0,0,0,0,0,0,0,0,0,0,0,0,
0,0,0,0,0,0,0,0,0,0,0,0,0,0,0,0,0,0,0,0,0,0,0,0,0,0,0,0,0,0,0,0,0,0,0,0,0,0,0,0,0,0,0,0,0,0,0,0,0,0,0,0,0,0,0,0,0,0,0,0,0,0,0,0,
0,0,0,0,0,0,0,0,0,0,0,0,0,0,0,0,0,0,0,0,0,0,0,0,0,0,0,0,0,0,0,0,0,0,0,0,0,0,0,0,0,0,0,0,0,0,0,0,0,0,0,0,0,0,0,0,0,0,0,0,0,0,0,0
</data>
    <properties>
      <property name="amiga_ocs" type="bool" value="true" />
      <property name="foreground" type="bool" value="false" />
    </properties>
  </layer>
  <layer id="4" name="foreground" width="64" height="19">
    <data encoding="csv">
0,0,0,0,0,0,0,0,0,0,0,0,0,0,0,0,0,0,0,0,0,0,0,0,0,0,0,0,0,0,0,0,0,0,0,0,0,0,0,0,0,0,0,0,0,0,0,0,0,0,0,0,0,0,0,0,0,0,0,0,0,0,0,0,
0,0,0,0,0,0,0,0,0,0,0,0,0,0,0,0,0,0,0,0,0,0,0,0,0,0,0,0,0,0,0,0,0,0,0,0,0,0,0,0,0,0,0,0,0,0,0,0,0,0,0,0,0,0,0,0,0,0,0,0,0,0,0,0,
0,0,0,0,0,0,0,0,0,0,0,0,0,0,0,0,0,0,0,0,0,0,0,0,0,0,0,0,0,0,0,0,0,0,0,0,0,0,0,0,0,0,0,0,0,0,0,0,0,0,0,0,0,0,0,0,0,0,0,0,0,0,0,0,
0,0,0,0,0,0,0,0,0,0,0,0,0,0,0,0,0,0,0,0,0,0,0,0,0,0,0,0,0,0,0,0,0,0,0,0,0,0,0,0,0,0,0,0,0,0,0,0,0,0,0,0,0,0,0,0,0,0,0,0,0,0,0,0,
0,0,0,0,0,0,0,0,0,0,0,0,0,0,0,0,0,0,0,0,0,0,0,0,0,0,0,0,0,0,0,0,0,0,0,0,0,0,0,0,0,0,0,0,0,0,0,0,0,0,0,0,0,0,0,0,0,0,0,0,0,0,0,0,
0,0,0,0,0,0,0,0,0,0,0,0,0,0,0,0,0,0,0,0,0,0,0,0,0,0,0,0,0,0,0,0,0,0,0,0,0,0,0,0,0,0,0,0,0,0,0,0,0,0,0,0,0,0,0,0,0,0,0,0,0,0,0,0,
0,0,0,0,0,0,0,0,0,0,0,0,0,0,0,0,0,0,0,0,0,0,0,0,0,0,0,0,0,0,0,0,0,0,0,0,0,0,0,0,0,0,0,0,0,0,0,0,0,0,0,0,0,0,0,0,0,0,0,0,0,0,0,0,
0,0,0,0,0,0,0,0,0,0,0,0,0,0,0,0,0,0,0,0,0,0,0,0,0,0,0,0,0,0,0,0,0,0,0,0,0,0,0,0,0,0,0,0,0,0,0,0,0,0,0,0,0,0,0,0,0,0,0,0,0,0,0,0,
0,0,0,0,0,0,0,0,0,0,0,0,0,0,0,0,0,0,0,0,0,0,0,0,0,0,0,0,0,0,0,0,0,0,0,0,0,0,0,0,0,0,0,0,0,0,0,0,0,0,0,0,0,0,0,0,0,0,0,0,0,0,0,0,
0,0,0,0,0,0,0,0,0,0,0,0,0,0,0,0,0,0,0,0,0,0,0,0,0,0,0,0,0,0,0,0,0,0,0,0,0,0,0,0,0,0,0,0,0,0,0,0,0,0,0,0,0,0,0,0,0,0,0,0,0,0,0,0,
0,0,0,0,0,0,0,0,0,0,0,0,0,0,0,0,0,0,0,0,0,0,0,0,0,0,0,0,0,0,0,0,0,0,0,0,0,0,0,0,0,0,0,0,0,0,0,0,0,0,0,0,0,0,0,0,0,0,0,0,0,0,0,0,
0,0,0,0,0,0,0,0,0,0,0,0,0,0,0,0,0,0,0,0,0,0,0,0,0,0,0,0,0,0,0,0,0,0,0,0,0,0,0,0,0,0,0,0,0,0,0,0,0,0,0,0,0,0,0,0,0,0,0,0,0,0,0,0,
0,0,0,0,0,0,0,0,0,0,0,0,0,0,0,0,0,0,0,0,0,0,0,0,0,0,0,0,0,0,0,0,0,0,0,0,0,0,0,0,0,0,0,0,0,0,0,0,0,0,0,0,0,0,0,0,0,0,0,0,0,0,0,0,
0,0,0,0,0,0,0,0,0,0,0,0,0,0,0,0,0,0,0,0,0,0,0,0,0,0,0,0,0,0,0,0,0,0,0,0,0,0,0,0,0,0,0,0,0,0,0,0,0,0,0,0,0,0,0,0,0,0,0,0,0,0,0,0,
0,0,0,0,0,0,0,0,0,0,0,0,0,0,0,0,0,0,0,0,0,0,0,0,0,0,0,0,0,0,0,0,0,0,0,0,0,0,0,0,0,0,0,0,0,0,0,0,0,0,0,0,0,0,0,0,0,0,0,0,0,0,0,0,
0,0,0,0,0,0,0,0,0,0,0,0,0,0,0,0,0,0,0,0,0,0,0,0,0,0,0,0,0,0,0,0,0,0,0,0,0,0,0,0,0,0,0,0,0,0,0,0,0,0,0,0,0,0,0,0,0,0,0,0,0,0,0,0,
0,0,0,0,0,0,0,0,0,0,0,0,0,0,0,0,0,0,0,0,0,0,0,0,0,0,0,0,0,0,0,0,0,0,0,0,0,0,0,0,0,0,0,0,0,0,0,0,0,0,0,0,0,0,0,0,0,0,0,0,0,0,0,0,
0,0,0,0,0,0,0,0,0,0,0,0,0,0,0,0,0,0,0,0,0,0,0,0,0,0,0,0,0,0,0,0,0,0,0,0,0,0,0,0,0,0,0,0,0,0,0,0,0,0,0,0,0,0,0,0,0,0,0,0,0,0,0,0,
0,0,0,0,0,0,0,0,0,0,0,0,0,0,0,0,0,0,0,0,0,0,0,0,0,0,0,0,0,0,0,0,0,0,0,0,0,0,0,0,0,0,0,0,0,0,0,0,0,0,0,0,0,0,0,0,0,0,0,0,0,0,0,0
</data>
    <properties>
      <property name="amiga_ocs" type="bool" value="true" />
      <property name="foreground" type="bool" value="true" />
    </properties>
  </layer>
  <objectgroup id="6" name="events" />
</map>